X: 2
I: linebreak $
C: John Playford, The Dancing Master, 1670
T: Epping Forest
T: round for as many as will
K: D minor
M: 6/4
L: 1/8
P: A
 |: "Gm"d4d2 "F"c3BA2 | "Gm"B3AG2 "D"^F4e2 | "Bb"f3ed2 "F"c4B2 | "Dm"A6- A4d2 | "Bb"f3ed2 "F"c4A2 | "Gm"B3AG2 "D"^F4D2 | 
"C"E3FG2 "D"G4^F2 |  [1 "Gm"G12 :|]  [2 "Gm"G6 G4 :: 
P: B
Bc | "Bb"d6 "F"c6 | "Bb"B6- B4de | "Dm"f6 "A"e6 | 
"Dm"d6- d4 :: 
P: C
d2 | "Gm"d3ed2 "F"c3BA2 | "Gm"B3AG2 "D"^F4D2 | "C"E3FG2 "D"G4^F2 |  [1 "Gm"G6- G4 :|]  [2 "Gm"G12 |] 

